X:108
T:Jon De Parre
O:No 108 Wm Clarke MS  Feltwell, Norfolk
I:abc2nwc
M:6/8
L:1/8
K:D
(A/2G/2)|FAd e2d|g2f b2a|agf fed|dcB BAG|
FAd e2d|g2f b2a|agf fed|cBc d2:|
e|e3/2f/2e ecA|A^GA B2c|ded dB^G|A3c2e|
e3/2f/2e ecA|a3/2b/2a afd|e3/2f/2e ecA|ABA GFE|]

